src/SVG/fotografia_video.svg

<?xml version="1.0" encoding="UTF-8" standalone="no"?>
<!-- Generator: Adobe Illustrator 15.0.0, SVG Export Plug-In . SVG Version: 6.00 Build 0)  -->

<svg
   xmlns:dc="http://purl.org/dc/elements/1.1/"
   xmlns:cc="http://creativecommons.org/ns#"
   xmlns:rdf="http://www.w3.org/1999/02/22-rdf-syntax-ns#"
   xmlns:svg="http://www.w3.org/2000/svg"
   xmlns="http://www.w3.org/2000/svg"
   xmlns:sodipodi="http://sodipodi.sourceforge.net/DTD/sodipodi-0.dtd"
   xmlns:inkscape="http://www.inkscape.org/namespaces/inkscape"
   version="1.1"
   id="Layer_1"
   x="0px"
   y="0px"
   width="334.48401"
   height="334.48401"
   viewBox="0 0 334.48401 334.48401"
   enable-background="new 0 0 612 792"
   xml:space="preserve"
   inkscape:version="0.48.3.1 r9886"
   sodipodi:docname="fotografia_video.svg"><metadata
   id="metadata23"><rdf:RDF><cc:Work
       rdf:about=""><dc:format>image/svg+xml</dc:format><dc:type
         rdf:resource="http://purl.org/dc/dcmitype/StillImage" /></cc:Work></rdf:RDF></metadata><defs
   id="defs21" /><sodipodi:namedview
   pagecolor="#ffffff"
   bordercolor="#666666"
   borderopacity="1"
   objecttolerance="10"
   gridtolerance="10"
   guidetolerance="10"
   inkscape:pageopacity="0"
   inkscape:pageshadow="2"
   inkscape:window-width="640"
   inkscape:window-height="480"
   id="namedview19"
   showgrid="false"
   fit-margin-top="0"
   fit-margin-left="0"
   fit-margin-right="0"
   fit-margin-bottom="0"
   inkscape:zoom="0.2979798"
   inkscape:cx="167.242"
   inkscape:cy="167.242"
   inkscape:window-x="0"
   inkscape:window-y="27"
   inkscape:window-maximized="0"
   inkscape:current-layer="Layer_1" />
<g
   id="g3"
   transform="translate(-138.758,-228.758)">
	<path
   d="m 306,228.758 c -92.214,0 -167.242,75.02 -167.242,167.242 0,92.214 75.028,167.242 167.242,167.242 92.214,0 167.242,-75.028 167.242,-167.242 0,-92.223 -75.028,-167.242 -167.242,-167.242 z m 0,308.754 c -78.026,0 -141.513,-63.485 -141.513,-141.512 0,-78.034 63.487,-141.513 141.513,-141.513 78.026,0 141.512,63.479 141.512,141.513 0,78.026 -63.486,141.512 -141.512,141.512 z"
   id="path5"
   inkscape:connector-curvature="0"
   style="fill:#6d8d24" />
	<path
   d="m 323.104,388.21 h 81.124 c -1.725,-22.195 -10.805,-42.263 -24.791,-57.892 l -56.333,57.892 z"
   id="path7"
   inkscape:connector-curvature="0"
   style="fill:#6d8d24" />
	<path
   d="m 380.123,460.927 c 13.602,-15.527 22.412,-35.319 24.104,-57.146 h -79.701 l 55.597,57.146 z"
   id="path9"
   inkscape:connector-curvature="0"
   style="fill:#6d8d24" />
	<path
   d="M 368.648,319.816 C 351.613,305.787 329.787,297.37 306,297.37 c -24.154,0 -46.25,8.711 -63.385,23.117 l 62.682,64.843 63.351,-65.514 z"
   id="path11"
   inkscape:connector-curvature="0"
   style="fill:#6d8d24" />
	<path
   d="m 243.368,472.184 c 17.036,14.021 38.845,22.447 62.632,22.447 24.154,0 46.267,-8.72 63.419,-23.134 l -62.682,-64.843 -63.369,65.53 z"
   id="path13"
   inkscape:connector-curvature="0"
   style="fill:#6d8d24" />
	<path
   d="m 207.772,403.78 c 1.742,22.188 10.805,42.271 24.808,57.9 l 56.334,-57.9 h -81.142 z"
   id="path15"
   inkscape:connector-curvature="0"
   style="fill:#6d8d24" />
	<path
   d="m 231.894,331.065 c -13.619,15.52 -22.414,35.319 -24.122,57.146 h 79.718 l -55.596,-57.146 z"
   id="path17"
   inkscape:connector-curvature="0"
   style="fill:#6d8d24" />
</g>
</svg>

<?xml version="1.0" encoding="utf-8"?>
<!-- Generator: Adobe Illustrator 15.0.0, SVG Export Plug-In . SVG Version: 6.00 Build 0)  -->
<!DOCTYPE svg PUBLIC "-//W3C//DTD SVG 1.1//EN" "http://www.w3.org/Graphics/SVG/1.1/DTD/svg11.dtd">
<svg version="1.1" id="Layer_1" xmlns="http://www.w3.org/2000/svg" xmlns:xlink="http://www.w3.org/1999/xlink" x="0px" y="0px"
	 width="612px" height="792px" viewBox="0 0 612 792" enable-background="new 0 0 612 792" xml:space="preserve">
<g>
	<path fill="#6D8D24" d="M306,228.758c-92.214,0-167.242,75.02-167.242,167.242c0,92.214,75.028,167.242,167.242,167.242
		S473.242,488.214,473.242,396C473.242,303.777,398.214,228.758,306,228.758z M306,537.512
		c-78.026,0-141.513-63.485-141.513-141.512c0-78.034,63.487-141.513,141.513-141.513c78.026,0,141.512,63.479,141.512,141.513
		C447.512,474.026,384.026,537.512,306,537.512z"/>
	<path fill="#6D8D24" d="M323.104,388.21h81.124c-1.725-22.195-10.805-42.263-24.791-57.892L323.104,388.21z"/>
	<path fill="#6D8D24" d="M380.123,460.927c13.602-15.527,22.412-35.319,24.104-57.146h-79.701L380.123,460.927z"/>
	<path fill="#6D8D24" d="M368.648,319.816C351.613,305.787,329.787,297.37,306,297.37c-24.154,0-46.25,8.711-63.385,23.117
		l62.682,64.843L368.648,319.816z"/>
	<path fill="#6D8D24" d="M243.368,472.184c17.036,14.021,38.845,22.447,62.632,22.447c24.154,0,46.267-8.72,63.419-23.134
		l-62.682-64.843L243.368,472.184z"/>
	<path fill="#6D8D24" d="M207.772,403.78c1.742,22.188,10.805,42.271,24.808,57.9l56.334-57.9H207.772z"/>
	<path fill="#6D8D24" d="M231.894,331.065c-13.619,15.52-22.414,35.319-24.122,57.146h79.718L231.894,331.065z"/>
</g>
</svg>
